X:4348
T:Montagnarde (version Paris)
O:england
C:F. Paris
M:3/8
L:1/16
K:C
ef|ag^fgag|egc2de|gfefdf|e2c2ef|\
ag^fgag|egc2de|gfefdB|c4:|
|:Bc|d2BdAd|e2ceGe|gfefdf|e2c2Bc|\
d2BdAd|e2ceGe|gfefdB|c4:|


